X:206
T: Abschied von der Wallfahrt (3-10), S. 39
N: P0981
O: Lothringen
S: PINCK, Louis: Verklingende Weisen, Bd3, Metz 1933]
R: yyy]
M: 2/4
L: 1/16
K: Bb
 | F2F2F2E2 | D2E2F4 |
F2B2B2d2 | c2A2B4 |
B2B2d2B2 | A2B2c2z
d | d2c2B2d2 | c2A2B4

